X:971
T:Phyllis' Birthday
R:reel
C:Josephine Marsh
Z:id:hn-reel-971
M:C|
L:1/8
K:F
AF~F2 Acdc | A2GB AGFD | CDFG Ac~c2 | dcAF G2FG |
AF~F2 Acdc | A2GB AGFD | CDFG Ac~c2 |1 dcAG F2FG :|2 dcAG F3A ||
|: cdfg afgf | d2cB AFFA | cdfg afgf | dggf g2fd |
cdfg afgf | dfcB AFFD | CDFG Ac~c2 |1 dcAG F3A :|2 dcAG F2FG ||

